X:1
T:Gort na Mona
M:9/8
R:Slip Jig
K:C
G|:C2E EDC DEG|c2e edc deg|f2e dcd ecG|1~A3 AGE D2G:|2AcA AGE DEF||
GAc cde ~d3|e2g gae gec|~d3 dcd ecG|AcA AGE DEG|
GAc cde ~d3|e2g gae gec|f2e dcd ecG|A2A AGE D2G:||
